X: 21602
T: Killarney Boys Of Pleasure, The
R: reel
M: 4/4
K: Dminor
|:CDDE DEFG|~A2GE CDEG|~A2 Ac dced|cAGE EDDC|
D2DE DEFG|~A2GE CDEG|~A2 Ac dced|1 cAGE EDDC:|2 cAGE EDD2||
|:Addc d2 Ad|cAGE CDEG|~e2 dee2ed|cAGE EDDG|
Addc d2 Ad|cAGE CDEG|~e2 dec2ed|1 cAGE EDDG:|2 cAGE EDD2||

